svg/UnitedNations-Flags/flag-bh.svg

<?xml version="1.0" encoding="UTF-8" standalone="no"?>
<svg height="256" id="svg2605" inkscape:output_extension="org.inkscape.output.svg.inkscape" inkscape:version="0.46" sodipodi:docname="Flag_of_Bahrain.svg" sodipodi:version="0.32" version="1.0" width="256" xmlns="http://www.w3.org/2000/svg" xmlns:cc="http://creativecommons.org/ns#" xmlns:dc="http://purl.org/dc/elements/1.1/" xmlns:inkscape="http://www.inkscape.org/namespaces/inkscape" xmlns:rdf="http://www.w3.org/1999/02/22-rdf-syntax-ns#" xmlns:sodipodi="http://sodipodi.sourceforge.net/DTD/sodipodi-0.dtd" xmlns:svg="http://www.w3.org/2000/svg">
  <metadata>
    <rdf:RDF xmlns:cc="http://web.resource.org/cc/" xmlns:dc="http://purl.org/dc/elements/1.1/" xmlns:rdf="http://www.w3.org/1999/02/22-rdf-syntax-ns#">
      <cc:Work rdf:about="">
        <dc:title></dc:title>
        <dc:description></dc:description>
        <dc:subject>
          <rdf:Bag>
            <rdf:li>unsorted</rdf:li>
          </rdf:Bag>
        </dc:subject>
        <dc:publisher>
          <cc:Agent rdf:about="http://www.openclipart.org/">
            <dc:title>Open Clip Art Library, Source: Wikimedia Commons, Source: Wikimedia Commons, Source: Wikimedia Commons, Source: Wikimedia Commons</dc:title>
          </cc:Agent>
        </dc:publisher>
        <dc:creator>
          <cc:Agent>
            <dc:title></dc:title>
          </cc:Agent>
        </dc:creator>
        <dc:rights>
          <cc:Agent>
            <dc:title></dc:title>
          </cc:Agent>
        </dc:rights>
        <dc:date></dc:date>
        <dc:format>image/svg+xml</dc:format>
        <dc:type rdf:resource="http://purl.org/dc/dcmitype/StillImage"/>
        <cc:license rdf:resource="http://en.wikipedia.org/wiki/Public_domain"/>
        <dc:language>en</dc:language>
      </cc:Work>
    </rdf:RDF>
  </metadata>
  <defs id="defs2612">
    <inkscape:perspective id="perspective2616" inkscape:persp3d-origin="750 : 300 : 1" inkscape:vp_x="0 : 450 : 1" inkscape:vp_y="0 : 1000 : 0" inkscape:vp_z="1500 : 450 : 1" sodipodi:type="inkscape:persp3d"/>
  </defs>
  <sodipodi:namedview bordercolor="#666666" borderopacity="1.0" gridtolerance="10.0" guidetolerance="10.0" id="base" inkscape:current-layer="svg2605" inkscape:cx="644.26165" inkscape:cy="-118.00881" inkscape:pageopacity="0.0" inkscape:pageshadow="2" inkscape:window-height="683" inkscape:window-width="909" inkscape:window-x="62" inkscape:window-y="288" inkscape:zoom="0.26351513" objecttolerance="10.0" pagecolor="#ffffff" showgrid="false"/>
  <rect height="153.60001" id="rect2607" style="fill:#ffffff" width="256" x="0" y="51.399994"/>
  <path d="M 64,51.399969 L 102.4,66.759969 L 64,82.119969 L 102.4,97.479969 L 64,112.83997 L 102.4,128.19997 L 64,143.55997 L 102.4,158.91997 L 64,174.27997 L 102.4,189.63997 L 64,204.99997 L 256,204.99997 L 256,51.399969 L 64,51.399969 z" id="path2609" style="fill:#ce1126"/>
</svg>

<svg xmlns="http://www.w3.org/2000/svg" viewBox="0 0 256 256"><path fill="#fff" d="m0 51.4h256v153.6h-256z"/><path d="m64 51.4l38.4 15.36-38.4 15.36 38.4 15.36-38.4 15.36 38.4 15.36-38.4 15.36 38.4 15.36-38.4 15.36 38.4 15.36-38.4 15.36h192v-153.6h-192" fill="#ce1126"/></svg>
